X: 40624
T: Tony's Orange Sherbets
R: reel
M: 4/4
K: Amajor
|:c3 B cBAF|EFAB cfec|B2 BA cBAF|EecA BAFA|
c3 B cBAF|EFAB cfec|Bffe f2 ef|1 afec A3B|2afec Bcde:|
f3 e f2 ef|afec B2 AF|EAAE ABcd|efec fecB|
Affe f2 ef|afec Bcde|f3 e a3 f|ecAc B2 AF|
E3 F EF A2-|AEFA c2 BA|F3 E FABc|f2 ec BAFA|
E3 F EF A2-|AEFA c2 BA|Bffe f2 ef|afec A3B||

